src/assets/icons/token.svg

<svg width="20" height="20" viewBox="0 0 20 20" fill="none" xmlns="http://www.w3.org/2000/svg">
<path d="M8.73501 10.0551C8.4996 10.7127 8.2642 11.3904 8.02879 12.0885C7.79339 12.7865 7.5626 13.5121 7.33643 14.2653C8.36722 14.103 9.40577 13.9162 10.4521 13.7052C11.5066 13.4861 12.5936 13.2343 13.7131 12.9498C13.4146 12.709 13.0595 12.4512 12.6478 12.1766C12.2412 11.9003 11.8101 11.6319 11.3544 11.3716C10.9073 11.1114 10.4562 10.8673 10.0011 10.6392C9.54728 10.4044 9.12578 10.2098 8.73658 10.0554L8.73501 10.0551Z"/>
<path d="M14.3225 6.59861C13.6668 6.50168 12.9993 6.42898 12.32 6.38052C11.6366 6.33163 10.9166 6.30719 10.1601 6.30719H9.62224L10.0751 6.74779C10.0764 6.74903 10.0772 6.75063 10.0776 6.75237C10.0779 6.75411 10.0777 6.75592 10.077 6.75754C9.90642 7.13121 9.7198 7.56132 9.51712 8.04786C9.32284 8.52455 9.11303 9.06176 8.8877 9.6595C10.1927 9.02735 11.2915 8.4637 12.184 7.96855C13.0822 7.4669 13.7955 7.00963 14.324 6.59672L14.3225 6.59861Z"/>
<path d="M10 0C4.4771 0 0 4.4771 0 10C0 15.5229 4.4771 20 10 20C15.5229 20 20 15.5229 20 10C20 4.4771 15.5229 0 10 0ZM10 19.0716C4.98977 19.0716 0.928403 15.0118 0.928403 10C0.928403 4.9882 4.98977 0.928403 10 0.928403C15.0102 0.928403 19.0716 4.98977 19.0716 10C19.0716 15.0102 15.0118 19.0716 10 19.0716Z"/>
<path d="M10.0001 1.42139C5.26214 1.42139 1.42139 5.26088 1.42139 10.0001C1.42139 14.7394 5.26088 18.5789 10.0001 18.5789C14.7394 18.5789 18.5789 14.7394 18.5789 10.0001C18.5789 5.26088 14.7381 1.42139 10.0001 1.42139ZM6.05994 14.492V14.4958H6.01116V14.4879H6.05994V14.492ZM15.4809 6.78441C14.8219 7.21514 13.9764 7.68239 12.9446 8.18614C11.9142 8.68108 10.6817 9.22049 9.24704 9.80439C10.2937 10.1103 11.3206 10.48 12.3221 10.9112C13.3448 11.3461 14.3379 11.8473 15.2952 12.4118C15.297 12.4129 15.2984 12.4146 15.2991 12.4166C15.2997 12.4187 15.2996 12.4209 15.2986 12.4228L14.8023 13.5517C14.8018 13.5529 14.8009 13.5541 14.7998 13.5549C14.7987 13.5558 14.7974 13.5564 14.7961 13.5567C13.739 13.7506 12.5886 13.9209 11.3446 14.0678C10.1006 14.2147 8.74738 14.3326 7.2848 14.4215C7.13059 14.9251 6.99264 15.3755 6.87095 15.7729C6.75703 16.1795 6.66754 16.5374 6.6025 16.8464H6.59464C6.63534 16.3592 6.76122 15.5599 6.97229 14.4483C6.80444 14.4642 6.64782 14.4762 6.50243 14.4842C6.35556 14.4842 6.2132 14.4883 6.07536 14.4964V14.4886C6.22178 14.4716 6.36718 14.4467 6.51092 14.414V14.414C6.6645 14.3817 6.82616 14.3493 6.99589 14.3167L7.04405 14.076C7.16615 13.4659 7.30452 12.8515 7.45915 12.233C7.61294 11.6093 7.7789 10.9694 7.95703 10.3133L5.9885 11.0425L5.98567 11.0352C6.20534 10.9373 6.48186 10.8114 6.81525 10.6576C7.14864 10.5038 7.55063 10.3082 8.02123 10.071C8.20817 9.35551 8.3992 8.68894 8.59432 8.07127C8.78944 7.45359 8.98792 6.87011 9.18976 6.32084C8.84252 6.3372 8.51543 6.35745 8.20848 6.38158C7.90951 6.4057 7.62626 6.43801 7.35876 6.47851C7.35759 6.47868 7.3564 6.47862 7.35527 6.47831C7.35413 6.478 7.35307 6.47746 7.35215 6.47672C7.35123 6.47598 7.35048 6.47506 7.34994 6.47401C7.34939 6.47296 7.34908 6.47182 7.349 6.47064L7.21556 5.10164C7.21543 5.10047 7.21555 5.09929 7.21589 5.09817C7.21624 5.09705 7.21682 5.09601 7.21759 5.09512C7.21836 5.09424 7.2193 5.09352 7.22036 5.09302C7.22142 5.09251 7.22257 5.09223 7.22375 5.0922C7.3767 5.08401 7.52566 5.08003 7.67064 5.08024H8.14649C9.28575 5.08024 10.4453 5.13269 11.625 5.23759C12.8119 5.3425 14.0353 5.505 15.2952 5.72508C15.2969 5.72542 15.2985 5.72626 15.2997 5.7275C15.3009 5.72873 15.3018 5.7303 15.3021 5.73201L15.484 6.7756C15.4844 6.77721 15.4843 6.77891 15.4838 6.78047C15.4832 6.78204 15.4822 6.78341 15.4809 6.78441V6.78441Z"/>
</svg>

<svg xmlns="http://www.w3.org/2000/svg" viewBox="0 0 20 20"><defs></defs><g id="Слой_2" data-name="Слой 2"><g id="Слой_1-2" data-name="Слой 1"><path class="cls-1" d="M8.73,10.06c-.23.65-.47,1.33-.7,2s-.47,1.42-.69,2.18c1-.17,2.07-.35,3.11-.56s2.14-.48,3.26-.76c-.3-.24-.65-.5-1.06-.77s-.84-.55-1.3-.81-.89-.5-1.35-.73a11.3,11.3,0,0,0-1.26-.58ZM14.32,6.6c-.65-.1-1.32-.17-2-.22s-1.4-.07-2.16-.07H9.62l.46.44h0c-.17.37-.36.8-.56,1.29s-.41,1-.63,1.61c1.3-.63,2.4-1.2,3.29-1.69A16.5,16.5,0,0,0,14.32,6.6ZM10,0A10,10,0,1,0,20,10,10,10,0,0,0,10,0Zm0,19.07A9.07,9.07,0,1,1,19.07,10,9.07,9.07,0,0,1,10,19.07ZM10,1.42A8.58,8.58,0,1,0,18.58,10,8.58,8.58,0,0,0,10,1.42ZM6.06,14.49h0Zm9.42-7.71a22.65,22.65,0,0,1-2.54,1.41c-1,.49-2.26,1-3.69,1.61a28.12,28.12,0,0,1,3.07,1.11,26.64,26.64,0,0,1,3,1.5h0l-.5,1.13h0c-1.06.19-2.21.36-3.46.51s-2.59.26-4.06.35c-.15.51-.29,1-.41,1.35s-.2.77-.27,1.08h0c0-.49.17-1.29.38-2.4l-.47,0-.43,0h0a3.11,3.11,0,0,0,.44-.08L7,14.32l0-.24c.13-.61.26-1.23.42-1.85S7.78,11,8,10.31L6,11H6l.82-.38c.34-.16.74-.35,1.21-.59.19-.71.38-1.38.57-2s.4-1.2.6-1.75l-1,.06-.85.1h0L7.22,5.1h.93c1.14,0,2.29,0,3.47.16s2.41.27,3.67.49h0l.18,1Z"/></g></g></svg>
